X: 1
T: Sal's Got Mud Between Her Toes - D
R: reel
M: 4/4
L: 1/8
Z: Contributed 2017-11-26 01:20:55 by Terry Terry_cowan@hotmail.com
K: Dmaj
A,B, ||\
"D"D2 D2 (3B,DB, A,B, | D2 D2 F3F |FEDF EDB,A, |DEDB, A,2 A,B,
DF ||"D"F2F2 FEDE | FAAB A2DF | F2A2 BAFD | FED2 E3E |
|: "D"AB |\
d2 d2 (3BdB AB | d2 d2 f4 | f3 a fede | f2 f2 e3 e |

